X: 5
T:Engelska fr\aa{}n Bohusl\"an (efter Johan August Nilsson)
C:Groupa: Vildhonung
S:RRtunes
N:1/4=90
M:2/4
L:1/16
K:C
C2EG (Gc)de|(fe)dc (cB)AG|F2AF E2GE|D2G2 FED2|
C2EG (Gc)de|(fe)fd (cB)AG|(fe)fd (cB)AB|c2e2 c2 z2:|
|:(Gc)ec (GB)dB|(Gc)ec (GB)dB|(GF)AF E2GG|(GF)AF E2GG|
(Gc)ec (GB)dB|(Gc)ec (GB)dB|(GA)Bc (df)dB|d2c2 c2 z2:|
